images/standarts/standart-7.svg

<svg width="25" height="24" viewBox="0 0 25 24" fill="none" xmlns="http://www.w3.org/2000/svg">
<g clip-path="url(#clip0_68_4535)">
<path d="M20.0611 12.0978L21.5921 14.7498C22.5591 16.4238 21.9851 18.5648 20.3121 19.5308C19.7791 19.8378 19.1761 19.9998 18.5621 19.9998H16.4991V21.9998L11.4991 18.4998L16.4991 14.9998V16.9998H18.5611C18.6491 16.9998 18.7351 16.9768 18.8111 16.9328C19.0241 16.8098 19.1121 16.5548 19.0321 16.3318L18.9941 16.2498L17.4631 13.5978L20.0611 12.0978ZM8.23608 9.38376L8.76608 15.4638L7.03608 14.4638L6.00408 16.2498C5.96008 16.3258 5.93708 16.4118 5.93708 16.4998C5.93708 16.7448 6.11408 16.9498 6.34708 16.9918L6.43708 16.9998H9.49908V19.9998H6.43708C4.50408 19.9998 2.93708 18.4328 2.93708 16.4998C2.93708 15.8858 3.09908 15.2818 3.40608 14.7498L4.43708 12.9638L2.70508 11.9638L8.23508 9.38376H8.23608ZM14.2491 2.96876C14.7811 3.27576 15.2231 3.71776 15.5301 4.24976L16.5601 6.03576L18.2931 5.03576L17.7631 11.1158L12.2311 8.53576L13.9631 7.53576L12.9321 5.74976C12.8881 5.67376 12.8251 5.60976 12.7491 5.56676C12.5361 5.44376 12.2711 5.49476 12.1181 5.67676L12.0661 5.74976L10.5361 8.40176L7.93708 6.90176L9.46708 4.24976C10.4341 2.57576 12.5751 2.00176 14.2491 2.96876Z" fill="white"/>
</g>
<defs>
<clipPath id="clip0_68_4535">
<rect width="24" height="24" fill="white" transform="translate(0.5)"/>
</clipPath>
</defs>
</svg>

<svg width="25" height="24" fill="none" xmlns="http://www.w3.org/2000/svg"><g clip-path="url(#clip0_68_4535)"><path d="M20.061 12.098l1.531 2.652a3.5 3.5 0 01-3.03 5.25H16.5v2l-5-3.5 5-3.5v2h2.062a.498.498 0 00.471-.668l-.038-.082-1.53-2.652 2.597-1.5zM8.236 9.384l.53 6.08-1.73-1-1.032 1.786a.498.498 0 00.343.742l.09.008H9.5v3H6.437a3.5 3.5 0 01-3.03-5.25l1.03-1.786-1.732-1 5.53-2.58h.001zm6.013-6.415c.532.307.974.749 1.281 1.28l1.03 1.787 1.733-1-.53 6.08-5.532-2.58 1.732-1-1.03-1.786a.498.498 0 00-.814-.073l-.053.073-1.53 2.652-2.599-1.5 1.53-2.652a3.5 3.5 0 014.782-1.281z" fill="#fff"/></g><defs><clipPath id="clip0_68_4535"><path fill="#fff" transform="translate(.5)" d="M0 0h24v24H0z"/></clipPath></defs></svg>
